assets/icons/outline/code-match.svg

<svg width="24" height="24" viewBox="0 0 24 24" fill="none" xmlns="http://www.w3.org/2000/svg">
<path d="M21 16.25C21.4142 16.25 21.75 16.5858 21.75 17C21.75 18.5188 20.5188 19.75 19 19.75H5C3.48122 19.75 2.25 18.5188 2.25 17C2.25 16.5858 2.58579 16.25 3 16.25C3.41421 16.25 3.75 16.5858 3.75 17C3.75 17.6904 4.30964 18.25 5 18.25H19C19.6904 18.25 20.25 17.6904 20.25 17C20.25 16.5858 20.5858 16.25 21 16.25Z" fill="#282828"/>
<path fill-rule="evenodd" clip-rule="evenodd" d="M13.04 5.5918C13.36 5.5918 13.6057 5.67702 13.7764 5.84766C13.9576 6.01824 14.0478 6.26917 14.0479 6.59961V10.3281C14.2348 10.0003 14.5006 9.72248 14.8477 9.49609C15.3382 9.17617 15.9091 9.0157 16.5596 9.01562C17.2529 9.01562 17.8562 9.18108 18.3682 9.51172C18.8802 9.84239 19.2804 10.3119 19.5684 10.9199C19.8564 11.5173 20 12.2374 20 13.0801C20 13.9119 19.8563 14.6373 19.5684 15.2559C19.2804 15.8639 18.8742 16.3334 18.3516 16.6641C17.8396 16.9946 17.2421 17.1602 16.5596 17.1602C15.8985 17.1601 15.3176 16.9945 14.8164 16.6641C14.4636 16.4263 14.1975 16.1299 14.0156 15.7764V16.1045C14.0156 16.435 13.9304 16.6908 13.7598 16.8721C13.5891 17.0426 13.3493 17.1279 13.04 17.1279C12.72 17.1279 12.4744 17.0427 12.3037 16.8721C12.1332 16.6908 12.0479 16.4349 12.0479 16.1045V6.59961C12.0479 6.26917 12.1331 6.01824 12.3037 5.84766C12.4744 5.67702 12.7201 5.5918 13.04 5.5918ZM16 10.5361C15.6054 10.5361 15.2586 10.6322 14.96 10.8242C14.6614 11.0055 14.4265 11.288 14.2559 11.6719C14.0959 12.0452 14.0156 12.5147 14.0156 13.0801C14.0156 13.9226 14.1971 14.5627 14.5596 15C14.9222 15.4267 15.4027 15.6396 16 15.6396C16.3946 15.6396 16.7414 15.5444 17.04 15.3525C17.3387 15.1605 17.5685 14.8772 17.7285 14.5039C17.8991 14.12 17.9844 13.6453 17.9844 13.0801C17.9844 12.2268 17.8031 11.5918 17.4404 11.1758C17.0778 10.7491 16.5973 10.5361 16 10.5361Z" fill="#282828"/>
<path fill-rule="evenodd" clip-rule="evenodd" d="M7.62402 9C8.3918 9.00003 9.02114 9.11699 9.51172 9.35156C10.013 9.58621 10.3865 9.94388 10.6318 10.4238C10.8772 10.8932 11 11.5014 11 12.248V16.0879C11 16.4186 10.9198 16.6751 10.7598 16.8564C10.5999 17.0269 10.3706 17.1122 10.0723 17.1123C9.77384 17.1123 9.5388 17.0268 9.36816 16.8564C9.20816 16.6751 9.12793 16.4186 9.12793 16.0879V15.749C9.04749 15.9483 8.94105 16.1307 8.80762 16.2959C8.59437 16.5625 8.32268 16.7706 7.99219 16.9199C7.66152 17.0693 7.28214 17.1436 6.85547 17.1436C6.29035 17.1435 5.7838 17.0374 5.33594 16.8242C4.8986 16.6002 4.5519 16.3011 4.2959 15.9277C4.05063 15.5545 3.92775 15.1333 3.92773 14.6641C3.92773 14.0881 4.07731 13.6344 4.37598 13.3037C4.67466 12.9625 5.1602 12.7177 5.83203 12.5684C6.50401 12.4191 7.40556 12.3438 8.53613 12.3438H9.0957V12.0078C9.09568 11.4749 8.97851 11.0911 8.74414 10.8564C8.50947 10.6218 8.11424 10.5039 7.55957 10.5039C7.25029 10.5039 6.91434 10.5416 6.55176 10.6162C6.19978 10.6909 5.82628 10.8187 5.43164 11C5.22902 11.096 5.04767 11.1227 4.8877 11.0801C4.73851 11.0374 4.62144 10.952 4.53613 10.8242C4.4508 10.6856 4.4082 10.536 4.4082 10.376C4.40821 10.216 4.4508 10.0614 4.53613 9.91211C4.62147 9.75214 4.76513 9.63423 4.96777 9.55957C5.45839 9.35694 5.92802 9.21325 6.37598 9.12793C6.83456 9.04262 7.25075 9 7.62402 9ZM8.55176 13.4961C7.89045 13.4961 7.36243 13.5278 6.96777 13.5918C6.57335 13.6558 6.29082 13.7679 6.12012 13.9277C5.96012 14.0771 5.87988 14.291 5.87988 14.5684C5.87997 14.9202 6.00282 15.2077 6.24805 15.4316C6.49333 15.6556 6.83429 15.7675 7.27148 15.7676C7.62348 15.7676 7.93353 15.6883 8.2002 15.5283C8.47745 15.3577 8.6955 15.1278 8.85547 14.8398C9.01547 14.5518 9.0957 14.221 9.0957 13.8477V13.4961H8.55176Z" fill="#282828"/>
</svg>

<svg xmlns="http://www.w3.org/2000/svg" width="24" height="24" fill="none" viewBox="0 0 24 24"><path fill="#282828" d="M21 16.25a.75.75 0 0 1 .75.75A2.75 2.75 0 0 1 19 19.75H5A2.75 2.75 0 0 1 2.25 17a.75.75 0 0 1 1.5 0c0 .69.56 1.25 1.25 1.25h14c.69 0 1.25-.56 1.25-1.25a.75.75 0 0 1 .75-.75"/><path fill="#282828" fill-rule="evenodd" d="M13.04 5.592q.48 0 .736.256.273.255.272.752v3.728q.28-.492.8-.832.735-.48 1.712-.48 1.04 0 1.808.496.768.495 1.2 1.408.432.896.432 2.16 0 1.248-.432 2.176-.432.912-1.216 1.408-.769.495-1.792.496-.991 0-1.744-.496a2.37 2.37 0 0 1-.8-.888v.329q0 .495-.256.767-.255.255-.72.256-.48 0-.736-.256-.255-.272-.256-.767V6.6q0-.496.256-.752.255-.256.736-.256M16 10.536a1.9 1.9 0 0 0-1.04.288q-.449.272-.704.848-.24.56-.24 1.408 0 1.265.544 1.92.544.64 1.44.64.592 0 1.04-.288.449-.287.689-.848.255-.576.255-1.424.001-1.28-.544-1.904-.544-.64-1.44-.64M7.624 9q1.152 0 1.888.352.751.352 1.12 1.072.368.704.368 1.824v3.84q0 .496-.24.768-.24.256-.688.256t-.704-.256q-.24-.27-.24-.768v-.339q-.12.3-.32.547a2.2 2.2 0 0 1-.816.624q-.496.224-1.137.224a3.5 3.5 0 0 1-1.52-.32 2.76 2.76 0 0 1-1.04-.896 2.25 2.25 0 0 1-.367-1.264q0-.864.448-1.36.448-.511 1.456-.736t2.704-.224h.56v-.336q0-.8-.352-1.152-.353-.351-1.184-.352-.465 0-1.008.112a5.4 5.4 0 0 0-1.12.384q-.304.144-.544.08a.6.6 0 0 1-.352-.256.84.84 0 0 1-.128-.448q0-.24.128-.464a.76.76 0 0 1 .432-.352q.736-.304 1.408-.432A7 7 0 0 1 7.624 9m.928 4.496q-.993 0-1.584.096t-.848.336q-.24.225-.24.64 0 .528.368.864t1.023.336q.529 0 .93-.24.414-.255.654-.688t.24-.992v-.352z" clip-rule="evenodd"/></svg>
